X:1081
T:Miss Douglas of Brigton's Strathspey.
M:C|
L:1/8
Q:1/4=120
I: :: ::
N:initial repeat bar not printed in the book
N:triplet marks left implicit in the book
Z:Jack Campin * www.campin.me.uk * 2009
K:C
G|:c/c/c Tc2        cege|  c/c/c Tc2       BdBG |\
   c/c/c Tc2        cege|(3faf (3ege       dfBG:|
   gc    (f/e/d/c/) gcfa|  gc   (f/e/d/c/) dfBG |\
   gc     f/e/d/c/  gceg|(3faf (3ege       dfBG:|
<end>
<start>
